X:1
T:Title
%%score { ( 1 3 ) | ( 2 4 ) }
L:1/8
M:3/4
K:C
V:1 treble nm="Grand Piano"
V:3 treble 
V:2 bass 
V:4 bass 
V:1
 z2 z2[Q:1/4=100] C>E | G3 E F>A | c2 G2 [Ge]>[Gd] | [Gc]3 A G>F |[M:2/4] E4 |[M:1/4] C>E | %6
[M:3/4] G3 E F>A | c2 G2 [Ge]>[Ge] | [Gd]3 [Gd] [^Fc]>[FA] |[M:2/4] G4 |[M:1/4] G,>G, | %11
[M:3/4] G,2 z2 B>d | c2 B2 G,>G, | fe d^c de | f6 |[M:1/4] G>G |[M:3/4] [Ge]3 [Gd] [Gc]>[EG] | %17
 A2 c2 A>A | G3 G d>e |[M:2/4] [Ec]4 |] %20
V:2
 z2 z2 C,>E, | G,3 E, F,>A, | C2 G,2 [C,C]>[D,B,] | [E,C]3 [F,CF] [G,B,D]>[G,D] |[M:2/4] [C,G,C]4 | %5
[M:1/4] C,>E, |[M:3/4] G,3 E, F,>A, | C2 G,2 [C,C]>[C,C] | [D,B,]3 [D,B,] [D,A,]>[D,C] | %9
[M:2/4] [G,B,]4 |[M:1/4] z2 |[M:3/4] z2 z2[K:treble] [FG]>[FG] | [EG]2 [DG]2 z2 | %13
 [DG][CG] [B,G][G,_B,G] [G,=B,G][G,CG] | [G,DG]6 |[M:1/4][K:bass] G,>G, | %16
[M:3/4] [C,C]3 [D,B,] [E,C]>[C,C] | [F,CF]2 [F,A,F]2 [F,CF]>[F,CF] | %18
 [G,CE]3 [G,CE] [G,B,F]>[G,B,G] |[M:2/4][K:bass] [C,C]4 |] %20
V:3
 x6 | x6 | x6 | x6 |[M:2/4] x4 |[M:1/4] x2 |[M:3/4] x6 | x6 | x6 |[M:2/4] x4 |[M:1/4] x2 | %11
[M:3/4] z2 G,4 | x6 | x6 | x6 |[M:1/4] x2 |[M:3/4] x6 | x6 | x6 |[M:2/4] x4 |] %20
V:4
 x6 | x6 | x6 | x6 |[M:2/4] x4 |[M:1/4] x2 |[M:3/4] x6 | x6 | x6 |[M:2/4] x4 |[M:1/4] x2 | %11
[M:3/4] x4[K:treble] x2 | G,4 z2 | G,4 z2 | x6 |[M:1/4][K:bass] x2 |[M:3/4] x6 | x6 | x6 | %19
[M:2/4][K:bass] x4 |] %20

